X: 118203
Q: "Strathspey."
M: C
L: 1/16
K: A
|:\
vAue3 ve3ud (cA3) c4 | B=g3 g3d (B=G3) (Bd3) |\
vagfe vc3va ue3ua c4 | (uB=g3) vg3ud B=G3 B3u^g |
agfe ca3 ea3 ca3 | Aa3 ca3 eA3 ce3 |\
vagfe vf3vd ue3ud c4 | (uB=g3) vg3ud B=G3 Bd3 |\
vABcd ve3vA uc3uA c4 | (uAa3) gb3 a2A2 ce3 |]


